pk/avocado-one.svg

<svg viewBox="0 0 48 48" fill="none" xmlns="http://www.w3.org/2000/svg" height="1em" width="1em">
  <path d="M7 32C10 37 15 40 20 41C25 42 30.8085 41.1437 35 38C41 33.5 43 26 43 21C43 16 41 10.5 40 9C39 7.5 37 7 37 7" stroke="black" stroke-width="4" stroke-linecap="round" stroke-linejoin="round"/>
  <path d="M21.0002 12.9999C16.6452 14.6045 12 12.9999 8.00015 15.9999C3.30352 19.5225 1.99983 24.9999 5.00015 29.9999C7.35207 33.9193 10.9997 35.9999 16.9997 35.9999C22.9997 35.9999 26.7643 34.2353 30.9997 29.9999C36.9997 23.9999 38.9997 14.4999 38.9997 10.9999C38.9997 7.49987 36.5 5.49986 32.9997 5.99986C29.4994 6.49986 26.5726 10.9466 21.0002 12.9999Z" fill="#2F88FF" stroke="black" stroke-width="4" stroke-linecap="round" stroke-linejoin="round"/>
  <path d="M21.9452 20.1174C20.7223 20.5976 19.4178 20.1174 18.2945 21.0152C16.9755 22.0693 16.6094 23.7083 17.452 25.2045C18.1125 26.3774 19.1368 27 20.8218 27C22.5068 27 23.564 26.472 24.7534 25.2045C26.4383 23.4091 27 20.5663 27 19.519C27 18.4716 26.298 17.8731 25.315 18.0228C24.3321 18.1724 23.5101 19.503 21.9452 20.1174Z" fill="#43CCF8" stroke="white" stroke-width="4" stroke-linecap="round" stroke-linejoin="round"/>
</svg>

<svg viewBox="0 0 48 48" fill="none" xmlns="http://www.w3.org/2000/svg" height="1em" width="1em">
  <path d="M7 32c3 5 8 8 13 9s10.808.144 15-3c6-4.5 8-12 8-17s-2-10.5-3-12-3-2-3-2" stroke="#000" stroke-width="4" stroke-linecap="round" stroke-linejoin="round"/>
  <path d="M21 13c-4.355 1.604-9 0-13 3-4.696 3.523-6 9-3 14 2.352 3.92 6 6 12 6s9.764-1.765 14-6c6-6 8-15.5 8-19s-2.5-5.5-6-5-6.427 4.947-12 7Z" fill="#2F88FF" stroke="#000" stroke-width="4" stroke-linecap="round" stroke-linejoin="round"/>
  <path d="M21.945 20.117c-1.223.48-2.527 0-3.65.898-1.32 1.054-1.686 2.693-.843 4.19.66 1.172 1.685 1.795 3.37 1.795s2.742-.528 3.931-1.796C26.438 23.41 27 20.566 27 19.52c0-1.047-.702-1.646-1.685-1.496-.983.15-1.805 1.48-3.37 2.094Z" fill="#43CCF8" stroke="#fff" stroke-width="4" stroke-linecap="round" stroke-linejoin="round"/>
</svg>
